src/cmd/lc_renametable.svg

<?xml version="1.0" encoding="UTF-8" standalone="no"?>
<svg
   xmlns:dc="http://purl.org/dc/elements/1.1/"
   xmlns:cc="http://creativecommons.org/ns#"
   xmlns:rdf="http://www.w3.org/1999/02/22-rdf-syntax-ns#"
   xmlns:svg="http://www.w3.org/2000/svg"
   xmlns="http://www.w3.org/2000/svg"
   xmlns:sodipodi="http://sodipodi.sourceforge.net/DTD/sodipodi-0.dtd"
   xmlns:inkscape="http://www.inkscape.org/namespaces/inkscape"
   viewBox="0 0 24 24"
   version="1.1"
   id="svg6"
   sodipodi:docname="lc_renametable.svg"
   inkscape:version="0.92.5 (2060ec1f9f, 2020-04-08)"
   inkscape:export-filename="/home/jupiter007/Libreoffice yaru theme fullcolor/build/cmd/lc_renametable.png"
   inkscape:export-xdpi="95"
   inkscape:export-ydpi="95">
  <metadata
     id="metadata12">
    <rdf:RDF>
      <cc:Work
         rdf:about="">
        <dc:format>image/svg+xml</dc:format>
        <dc:type
           rdf:resource="http://purl.org/dc/dcmitype/StillImage" />
      </cc:Work>
    </rdf:RDF>
  </metadata>
  <defs
     id="defs10" />
  <sodipodi:namedview
     pagecolor="#ffffff"
     bordercolor="#666666"
     borderopacity="1"
     objecttolerance="10"
     gridtolerance="10"
     guidetolerance="10"
     inkscape:pageopacity="0"
     inkscape:pageshadow="2"
     inkscape:window-width="1920"
     inkscape:window-height="1011"
     id="namedview8"
     showgrid="true"
     inkscape:zoom="21.774548"
     inkscape:cx="4.1458381"
     inkscape:cy="10.751342"
     inkscape:window-x="1920"
     inkscape:window-y="32"
     inkscape:window-maximized="1"
     inkscape:current-layer="svg6">
    <inkscape:grid
       type="xygrid"
       id="grid822" />
  </sodipodi:namedview>
  <rect
     style="opacity:1;fill:#ffffff;fill-opacity:1;stroke:none;stroke-width:2;stroke-linecap:round;stroke-linejoin:round;stroke-miterlimit:4;stroke-dasharray:none;stroke-opacity:1"
     id="rect827"
     width="14"
     height="14"
     x="5"
     y="5"
     inkscape:export-filename="/home/jupiter007/Libreoffice yaru theme fullcolor/build/cmd/rect827.png"
     inkscape:export-xdpi="95"
     inkscape:export-ydpi="95" />
  <path
     d="m 7.0000001,4 c -2,0 -3,0 -3,2 v 12 c 0,2 1,2 3,2 H 17 c 2,0 3,0 3,-2 V 6 C 20,4 19,4 17,4 Z m -2,2 c 0,-1 1,-1 2,-1 h 2 v 1 1 h -1 -3 z M 10,5 h 4 V 6 7 H 10 V 6 Z m 5,0 h 2 c 1,0 2,0 2,1 V 7 H 16 15 V 6 Z M 5.0000001,8 h 3 1 v 2 h -4 z M 10,8 h 4 v 2 h -4 z m 5,0 h 4 v 2 h -4 z m -9.9999999,3 h 4 v 2 h -4 z M 10,11 h 4 v 2 h -4 z m 5,0 h 4 v 2 h -4 z m -9.9999999,3 h 4 v 2 h -1 -3 z M 10,14 h 4 v 2 h -4 z m 5,0 h 4 v 2 h -4 z m -9.9999999,3 h 3 1 V 18.099609 19 h -2 c -1,0 -2,0 -2,-1 z M 10,17 h 4 v 2 h -4 z m 5,0 h 4 v 1 c 0,1 -1,1 -2,1 h -2 z"
     id="path2"
     inkscape:connector-curvature="0"
     style="opacity:1;fill:#6d6d6d;fill-opacity:1"
     sodipodi:nodetypes="cccccccccccccccccccccccccccccccccccccccccccccccccccccccccccccccccccccccccccccccccccccccccccccccccc" />
  <path
     sodipodi:nodetypes="ccccccccccccc"
     style="opacity:0.6;fill:#000000;stroke:#000000;stroke-width:2;stroke-linejoin:round;stroke-miterlimit:4;stroke-dasharray:none"
     inkscape:connector-curvature="0"
     id="path822"
     d="m 17,13 v 2 h 2 v 6 h -2 v 2 h 6 v -2 h -2 v -6 h 2 v -2 z" />
  <path
     d="m 17,13 v 2 h 2 v 6 h -2 v 2 h 6 v -2 h -2 v -6 h 2 v -2 z"
     id="path4"
     inkscape:connector-curvature="0"
     style="fill:#aee3f8;fill-opacity:1"
     sodipodi:nodetypes="ccccccccccccc" />
</svg>

<?xml version="1.0" encoding="UTF-8" standalone="no"?>
<svg
   xmlns:dc="http://purl.org/dc/elements/1.1/"
   xmlns:cc="http://creativecommons.org/ns#"
   xmlns:rdf="http://www.w3.org/1999/02/22-rdf-syntax-ns#"
   xmlns:svg="http://www.w3.org/2000/svg"
   xmlns="http://www.w3.org/2000/svg"
   xmlns:sodipodi="http://sodipodi.sourceforge.net/DTD/sodipodi-0.dtd"
   xmlns:inkscape="http://www.inkscape.org/namespaces/inkscape"
   viewBox="0 0 24 24"
   version="1.1"
   id="svg6"
   sodipodi:docname="lc_renametable.svg"
   inkscape:version="0.92.4 (5da689c313, 2019-01-14)">
  <metadata
     id="metadata12">
    <rdf:RDF>
      <cc:Work
         rdf:about="">
        <dc:format>image/svg+xml</dc:format>
        <dc:type
           rdf:resource="http://purl.org/dc/dcmitype/StillImage" />
      </cc:Work>
    </rdf:RDF>
  </metadata>
  <defs
     id="defs10" />
  <sodipodi:namedview
     pagecolor="#ffffff"
     bordercolor="#666666"
     borderopacity="1"
     objecttolerance="10"
     gridtolerance="10"
     guidetolerance="10"
     inkscape:pageopacity="0"
     inkscape:pageshadow="2"
     inkscape:window-width="1920"
     inkscape:window-height="1011"
     id="namedview8"
     showgrid="true"
     inkscape:zoom="111.25147"
     inkscape:cx="6.2154573"
     inkscape:cy="6.2269047"
     inkscape:window-x="1920"
     inkscape:window-y="32"
     inkscape:window-maximized="1"
     inkscape:current-layer="svg6">
    <inkscape:grid
       type="xygrid"
       id="grid822" />
  </sodipodi:namedview>
  <path
     d="M 7,4 C 5,4 4,4 4,6 v 12 c 0,2 1,2 2.9055929,2 H 15 v -1 -2 -1 -1 -1 -1 -2 h 4 1 V 6 C 20,4 19,4 17,4 Z M 7,5 H 9 V 6 7 H 8 5 V 6 C 5,5 6,5 7,5 Z m 3,0 h 4 V 6 7 H 10 V 6 Z m 5,0 h 2 c 1,0 2,0 2,1 V 7 H 16 15 V 6 Z M 5,8 h 3 1 v 1 1 H 5 V 9 Z m 5,0 h 4 v 1 1 H 10 V 9 Z m 5,0 h 4 v 1 1 H 15 V 9 Z M 5,11 h 4 v 2 H 5 Z m 5,0 h 4 v 2 h -4 z m -5,3 h 4 v 1 1 H 8 5 v -1 z m 5,0 h 4 v 2 H 10 V 15 Z M 5,17 H 8 9 V 18.099609 19 H 7 C 6,19 5,19 5,18 Z m 5,0 h 4 v 2 h -4 z"
     id="path2"
     inkscape:connector-curvature="0"
     style="fill:#232629"
     sodipodi:nodetypes="ccccccccccccccccccccccccccccccccccccccccccccccccccccccccccccccccccccccccccccccccccccccccccccccccccc" />
  <path
     d="m16 12v1h2v6h-2v1h5v-1h-2v-6h2v-1z"
     fill="#762572"
     id="path4" />
</svg>
